X:1
T:We Give Thee but Thine Own, SM
T:We Give Thee but Thine Own, SM
T:Edward Henry Thorne (1834-1916)
T:Public Domain Courtesy of the Cyber Hymnal™
C:Edward Henry Thorne (1834-1916)
Z:Public Domain
Z:Courtesy of the Cyber Hymnal™
%%score ( 1 2 ) ( 3 4 )
L:1/8
Q:1/4=113
M:4/4
K:F
V:1 treble 
V:2 treble 
V:3 bass 
V:4 bass 
V:1
 F2 | [FG]2 [FA]2 [DB]2 [CE]2 | [CF]6 [FA]2 | [FB]2 [Fc]2 [Ed]2 [EB]2 | [EA]6 [^CG]2 | %5
 [DG]2 [D^F]2 [DG]2 [B,B]2 | [CA]2 [CG]2 [Cc]2 [_EA]2 | d3 z c [DB]2 [EG]2 | F6 |] %9
V:2
 F2 | x8 | x8 | x8 | x8 | x8 | x8 | D2 D2 x5 | F6 |] %9
V:3
 [D,A,]2 | [B,,D]2 [A,,C]2 [G,,B,]2 [C,B,]2 | [F,,A,]6 [_E,C]2 | [D,B,]2 [C,A,]2 [B,,G,]2 [G,,D]2 | %4
 [A,,^C]6 [A,,A,]2 | A,2 z [B,,G,]2 [G,,G,]2 x | F,2 z [A,,F,]2 [F,,C]2 x | %7
 C2 z [G,,B,]2 [C,B,]2 x2 | [F,,A,]6 |] %9
V:4
 x2 | x8 | x8 | x8 | x8 | D,3 (A,2 C,) x2 | C,3 (E,2 B,,) x2 | B,,3 (B,2 A,,) x3 | x6 |] %9

